dist/img/back.svg

<svg width="10" height="15" viewBox="0 0 10 15" fill="none" xmlns="http://www.w3.org/2000/svg">
<path d="M6.95313 13.1875L1.68751 7.9375C1.62501 7.875 1.58063 7.80729 1.55438 7.73438C1.52813 7.66146 1.51522 7.58333 1.51563 7.5C1.51563 7.41667 1.52855 7.33854 1.55438 7.26562C1.58022 7.19271 1.62459 7.125 1.68751 7.0625L6.95313 1.79687C7.09897 1.65104 7.28126 1.57812 7.50001 1.57812C7.71876 1.57812 7.90626 1.65625 8.06251 1.8125C8.21876 1.96875 8.29688 2.15104 8.29688 2.35938C8.29688 2.56771 8.21876 2.75 8.06251 2.90625L3.46876 7.5L8.06251 12.0938C8.20834 12.2396 8.28126 12.4194 8.28126 12.6331C8.28126 12.8469 8.20313 13.0317 8.04688 13.1875C7.89063 13.3438 7.70834 13.4219 7.50001 13.4219C7.29168 13.4219 7.10938 13.3438 6.95313 13.1875Z" fill="#222831"/>
</svg>

<svg width="10" height="15" fill="none" xmlns="http://www.w3.org/2000/svg"><path d="M6.953 13.188l-5.265-5.25a.552.552 0 01-.134-.204.677.677 0 01-.038-.234c0-.083.013-.161.038-.234a.542.542 0 01.134-.204l5.265-5.265a.742.742 0 01.547-.219.77.77 0 01.563.234.75.75 0 01.234.547.75.75 0 01-.234.547L3.469 7.5l4.594 4.594a.733.733 0 01.218.54.756.756 0 01-.234.553.75.75 0 01-.547.235.75.75 0 01-.547-.235z" fill="#222831"/></svg>
